fs/building_retail_more_32_filled.svg

<svg viewBox="0 0 32 32" fill="none" xmlns="http://www.w3.org/2000/svg" height="1em" width="1em">
  <path d="M6.12999 4.08741C6.69991 3.39868 7.5473 3 8.44126 3H23.5593C24.4533 3 25.3007 3.39868 25.8706 4.08742L30.5357 9.72494C31.6146 11.0288 30.6872 13 28.9948 13H3.00577C1.31332 13 0.385927 11.0288 1.46491 9.72494L6.12999 4.08741ZM4 15V25.75C4 27.5449 5.45508 29 7.25 29H24.75C26.5449 29 28 27.5449 28 25.75V15H4ZM12 20C12 21.1046 11.1046 22 10 22C8.89543 22 8 21.1046 8 20C8 18.8954 8.89543 18 10 18C11.1046 18 12 18.8954 12 20ZM16 22C14.8954 22 14 21.1046 14 20C14 18.8954 14.8954 18 16 18C17.1046 18 18 18.8954 18 20C18 21.1046 17.1046 22 16 22ZM24 20C24 21.1046 23.1046 22 22 22C20.8954 22 20 21.1046 20 20C20 18.8954 20.8954 18 22 18C23.1046 18 24 18.8954 24 20Z" fill="#212121"/>
</svg>

<svg viewBox="0 0 32 32" fill="none" xmlns="http://www.w3.org/2000/svg" height="1em" width="1em">
  <path d="M6.13 4.087A3 3 0 0 1 8.441 3H23.56a3 3 0 0 1 2.312 1.087l4.665 5.638c1.079 1.304.151 3.275-1.541 3.275H3.005c-1.692 0-2.62-1.971-1.54-3.275L6.13 4.087ZM4 15v10.75A3.25 3.25 0 0 0 7.25 29h17.5A3.25 3.25 0 0 0 28 25.75V15H4Zm8 5a2 2 0 1 1-4 0 2 2 0 0 1 4 0Zm4 2a2 2 0 1 1 0-4 2 2 0 0 1 0 4Zm8-2a2 2 0 1 1-4 0 2 2 0 0 1 4 0Z" fill="#212121"/>
</svg>
